packages/core/src/svgs/tokens/mono/FSN.svg

<svg width="24" height="24" viewBox="0 0 24 24" fill="none" xmlns="http://www.w3.org/2000/svg">
<path d="M11.4429 8.50031C8.40015 13.2144 6.54306 19.7714 5.81451 22C5.40738 17.8001 7.5716 12.0788 9.15014 8.70031C8.41445 8.72888 4.86454 9.09315 2.7146 11.336C2.7146 11.336 3.56458 7.65034 10.2572 6.55037L10.2787 6.5075C15.5215 -1.26372 19.4642 3.37187 19.4642 3.37187C17.0714 2.97188 14.9856 4.18613 13.2072 6.15751C14.0715 6.11466 19.6714 6.05038 21.2855 10.536C21.2855 10.536 18.0427 8.17889 11.4429 8.50031ZM15.2285 13.9002C14.9095 13.8977 14.5932 13.9597 14.2987 14.0825C14.004 14.2052 13.7374 14.3862 13.5144 14.6144C13.057 15.0817 12.8029 15.7107 12.8072 16.3643C12.8039 16.766 12.8995 17.1621 13.0857 17.518C13.272 17.8736 13.5432 18.1781 13.8752 18.4041C14.207 18.6301 14.5897 18.7708 14.9888 18.8136C15.3881 18.8566 15.7918 18.8004 16.1643 18.6501C16.4613 18.5263 16.7306 18.3443 16.9563 18.1149C17.1819 17.8854 17.3594 17.6133 17.4784 17.3143C17.6377 16.9425 17.7024 16.537 17.6667 16.134C17.6309 15.731 17.4961 15.343 17.2739 15.005C17.0518 14.6669 16.7494 14.389 16.3938 14.1962C16.0381 14.0034 15.6403 13.9017 15.2356 13.9002H15.2285Z" fill="white"/>
</svg>

<svg xmlns="http://www.w3.org/2000/svg" width="24" height="24" fill="none" viewBox="0 0 24 24">
    <path fill="#fff" d="M11.443 8.5C8.4 13.214 6.543 19.771 5.815 22c-.408-4.2 1.757-9.921 3.335-13.3-.736.029-4.285.393-6.435 2.636 0 0 .85-3.686 7.542-4.786l.022-.042c5.243-7.772 9.185-3.136 9.185-3.136-2.393-.4-4.478.814-6.257 2.786.864-.043 6.464-.108 8.078 4.378 0 0-3.242-2.357-9.842-2.036m3.786 5.4a2.37 2.37 0 0 0-1.715.714 2.48 2.48 0 0 0-.707 1.75 2.445 2.445 0 0 0 2.182 2.45c.4.043.803-.014 1.175-.164a2.4 2.4 0 0 0 1.314-1.336 2.448 2.448 0 0 0-2.242-3.414z"/>
</svg>
